actions/48/go-bottom.svg

<?xml version="1.0" encoding="UTF-8" standalone="no"?>
<svg
   xmlns:dc="http://purl.org/dc/elements/1.1/"
   xmlns:cc="http://creativecommons.org/ns#"
   xmlns:rdf="http://www.w3.org/1999/02/22-rdf-syntax-ns#"
   xmlns:svg="http://www.w3.org/2000/svg"
   xmlns="http://www.w3.org/2000/svg"
   xmlns:xlink="http://www.w3.org/1999/xlink"
   version="1.1"
   width="48"
   height="48"
   id="svg2510">
  <defs
     id="defs2512">
    <linearGradient
       x1="26"
       y1="-9.193471"
       x2="26"
       y2="0.079183199"
       id="linearGradient3174"
       xlink:href="#linearGradient5113"
       gradientUnits="userSpaceOnUse"
       gradientTransform="translate(-1.960196,48.00635)" />
    <linearGradient
       id="linearGradient3168">
      <stop
         id="stop2551"
         style="stop-color:#a7cc5c;stop-opacity:1"
         offset="0" />
      <stop
         id="stop3173"
         style="stop-color:#789e2d;stop-opacity:1"
         offset="1" />
    </linearGradient>
    <linearGradient
       x1="8.0398045"
       y1="42.506351"
       x2="40.039803"
       y2="42.506351"
       id="linearGradient3175"
       xlink:href="#linearGradient3168"
       gradientUnits="userSpaceOnUse" />
    <linearGradient
       id="linearGradient5113">
      <stop
         id="stop5115"
         style="stop-color:#ffffff;stop-opacity:1"
         offset="0" />
      <stop
         id="stop5117"
         style="stop-color:#ffffff;stop-opacity:0"
         offset="1" />
    </linearGradient>
    <linearGradient
       x1="43.129921"
       y1="15.195395"
       x2="7.9313831"
       y2="34.731434"
       id="linearGradient2606"
       xlink:href="#linearGradient5113"
       gradientUnits="userSpaceOnUse"
       gradientTransform="matrix(0,-1.004639,1,0,-1.992111,51.04406)" />
    <linearGradient
       id="linearGradient2264">
      <stop
         id="stop2266"
         style="stop-color:#d7e866;stop-opacity:1"
         offset="0" />
      <stop
         id="stop2268"
         style="stop-color:#8cab2a;stop-opacity:1"
         offset="1" />
    </linearGradient>
    <linearGradient
       x1="24.004463"
       y1="7.1938653"
       x2="24.004463"
       y2="37.193859"
       id="linearGradient3172"
       xlink:href="#linearGradient2264"
       gradientUnits="userSpaceOnUse" />
    <linearGradient
       id="linearGradient5105">
      <stop
         id="stop5107"
         style="stop-color:#000000;stop-opacity:1"
         offset="0" />
      <stop
         id="stop5109"
         style="stop-color:#000000;stop-opacity:0"
         offset="1" />
    </linearGradient>
    <radialGradient
       cx="11.25"
       cy="19.03125"
       r="8.0625"
       fx="11.25"
       fy="19.03125"
       id="radialGradient2604"
       xlink:href="#linearGradient5105"
       gradientUnits="userSpaceOnUse"
       gradientTransform="matrix(1,0,0,0.282946,0,13.64644)" />
  </defs>
  <metadata
     id="metadata2515">
    <rdf:RDF>
      <cc:Work
         rdf:about="">
        <dc:format>image/svg+xml</dc:format>
        <dc:type
           rdf:resource="http://purl.org/dc/dcmitype/StillImage" />
      </cc:Work>
    </rdf:RDF>
  </metadata>
  <g
     id="layer1">
    <g
       transform="translate(-2.5e-7,3.6875e-6)"
       id="g2595"
       style="display:inline">
      <path
         d="m 19.3125,19.03125 a 8.0625,2.28125 0 1 1 -16.125,0 8.0625,2.28125 0 1 1 16.125,0 z"
         transform="matrix(2.48062,0,0,2.410961,-3.906976,-5.38361)"
         id="path4346"
         style="opacity:0.16292138;fill:url(#radialGradient2604);fill-opacity:1;fill-rule:nonzero;stroke:none;stroke-width:1;marker:none;visibility:visible;display:inline;overflow:visible" />
      <path
         d="M 7.5398059,20.590592 24.04583,39.506349 40.469121,20.590592 l -7.869835,0 0,-15.0842271 -17.055132,0 0,15.0842271 -8.0043481,0 z"
         id="path4348"
         style="fill:url(#linearGradient3172);fill-opacity:1;fill-rule:nonzero;stroke:#548820;stroke-width:0.99999958;stroke-linecap:butt;stroke-linejoin:miter;stroke-miterlimit:4;stroke-opacity:1;stroke-dasharray:none;stroke-dashoffset:0;marker:none;visibility:visible;display:inline;overflow:visible" />
      <path
         d="m 9.6808629,21.573053 14.3862731,16.516639 14.199301,-16.516639 -6.738369,0 0,-15.0666835 -14.978334,0 0,15.0666835 -6.8688711,0 z"
         id="path4360"
         style="opacity:0.35400008;fill:none;stroke:url(#linearGradient2606);stroke-width:0.99999958;stroke-linecap:butt;stroke-linejoin:miter;stroke-miterlimit:4;stroke-opacity:1;stroke-dasharray:none;stroke-dashoffset:0;marker:none;visibility:visible;display:inline;overflow:visible" />
      <rect
         width="33.000008"
         height="4.0000119"
         x="7.5398059"
         y="40.506359"
         id="rect2600"
         style="fill:#97ae43;fill-opacity:1;fill-rule:nonzero;stroke:#548820;stroke-width:0.99999982;stroke-linecap:butt;stroke-linejoin:miter;stroke-miterlimit:4;stroke-opacity:1;stroke-dasharray:none;stroke-dashoffset:0;marker:none;visibility:visible;display:inline;overflow:visible" />
      <rect
         width="31"
         height="2.0000019"
         x="8.5398045"
         y="41.506351"
         id="rect2602"
         style="opacity:0.35400008;fill:url(#linearGradient3175);fill-opacity:1;fill-rule:nonzero;stroke:url(#linearGradient3174);stroke-width:0.99999988;stroke-linecap:butt;stroke-linejoin:miter;stroke-miterlimit:4;stroke-opacity:1;stroke-dasharray:none;stroke-dashoffset:0;marker:none;visibility:visible;display:inline;overflow:visible" />
    </g>
  </g>
</svg>

<svg xmlns="http://www.w3.org/2000/svg" xmlns:xlink="http://www.w3.org/1999/xlink" viewBox="0 0 48 48"><defs><linearGradient x1="26" y1="-9.193" x2="26" y2=".079" id="i" xlink:href="#a" gradientUnits="userSpaceOnUse" gradientTransform="translate(-1.96 48.006)"/><linearGradient id="b"><stop offset="0" stop-color="#a7cc5c"/><stop offset="1" stop-color="#789e2d"/></linearGradient><linearGradient x1="8.04" y1="42.506" x2="40.04" y2="42.506" id="h" xlink:href="#b" gradientUnits="userSpaceOnUse"/><linearGradient id="a"><stop offset="0" stop-color="#fff"/><stop offset="1" stop-color="#fff" stop-opacity="0"/></linearGradient><linearGradient x1="43.13" y1="15.195" x2="7.931" y2="34.731" id="g" xlink:href="#a" gradientUnits="userSpaceOnUse" gradientTransform="matrix(0 -1.00464 1 0 -1.992 51.044)"/><linearGradient id="c"><stop offset="0" stop-color="#d7e866"/><stop offset="1" stop-color="#8cab2a"/></linearGradient><linearGradient x1="24.004" y1="7.194" x2="24.004" y2="37.194" id="f" xlink:href="#c" gradientUnits="userSpaceOnUse"/><linearGradient id="d"><stop offset="0"/><stop offset="1" stop-opacity="0"/></linearGradient><radialGradient cx="11.25" cy="19.031" r="8.063" fx="11.25" fy="19.031" id="e" xlink:href="#d" gradientUnits="userSpaceOnUse" gradientTransform="matrix(1 0 0 .28295 0 13.646)"/></defs><path d="M19.313 19.03a8.063 2.28 0 1 1-16.125 0 8.063 2.28 0 1 1 16.125 0z" transform="matrix(2.48062 0 0 2.41096 -3.907 -5.384)" opacity=".163" fill="url(#e)" overflow="visible"/><path d="M7.54 20.59l16.506 18.916L40.47 20.59H32.6V5.507H15.543V20.59H7.54z" fill="url(#f)" stroke="#548820" overflow="visible"/><path d="M9.68 21.573L24.068 38.09l14.2-16.517h-6.74V6.506H16.55v15.067H9.68z" opacity=".354" fill="none" stroke="url(#g)" overflow="visible"/><path fill="#97ae43" stroke="#548820" overflow="visible" d="M7.54 40.506h33v4h-33z"/><path opacity=".354" fill="url(#h)" stroke="url(#i)" overflow="visible" d="M8.54 41.506h31v2h-31z"/></svg>
